X:1
T:[ID 3-11b]
T:[ID 3-11b]
T:Bezeichnung standardisiert: Polonaise Polonoise 7.
T:Urheber unbekannt Datum in der hier transkribierten schriftlichen Quelle: 1767
C:Urheber unbekannt
C:Datum in der hier transkribierten schriftlichen Quelle: 1767
%%score 1 2
L:1/8
M:3/4
K:D
V:1 treble nm="Primo"
V:2 treble nm="Secondo"
V:1
{B} AG/F/ G2 e2 |{d} cB/A/ dA FD | AG/F/ G2 e2 |{d} cB/c/ d2 D2 ::"^O)" A/B/c/d/ e2 a2 | %5
 (ag)(gf)(fe) |"^O)" A/B/c/d/ e2 a2 | (ag)(gf)(fe) |{B} AG/F/ G2 e2 |{d} cB/A/ dA FD | %10
 AG/F/ G2 e2 |{d} cB/c/ d2 D2 :| %12
V:2
{!fermata!G} !fermata!FE/D/ E2 c2 |{B} AG/F/ Fd AF | FE/D/ E2 c2 |{B} AG/F/ F2 F2 :: %4
"^O)" F/G/A/B/ c2 f2 | (fe)(ed)(dc) |"^O)" F/G/A/B/ c2 f2 | (fe)(ed)(dc) |{G} FE/D/ E2 c2 | %9
{B} AG/F/ FdAF | FE/D/ E2 c2 |{B} AG/F/ F2 F2 :| %12

